static/assets/images/icons/safe.svg

<svg width="256" height="256" viewBox="0 0 256 256" fill="none" xmlns="http://www.w3.org/2000/svg">
<path fill-rule="evenodd" clip-rule="evenodd" d="M140.518 25.4676L217.067 56.3168C219.948 57.8586 222.351 60.1302 224.025 62.8935C225.698 65.6568 226.581 68.8098 226.581 72.0219L226.581 104.423C226.581 159.374 192.842 208.992 140.917 230.405C132.526 233.865 123.055 233.865 114.664 230.405C62.7386 208.992 29 159.374 29 104.423V72.0219C28.9992 68.8098 29.8821 65.6568 31.5559 62.8935C33.2297 60.1302 35.6328 57.8586 38.5131 56.3168L115.063 25.4676C123.227 22.1775 132.354 22.1775 140.518 25.4676ZM188 105.917L118.124 176L76 133.751L89.8761 119.834L118.124 148.166L174.124 92L188 105.917Z" fill="black"/>
</svg>

<svg xmlns="http://www.w3.org/2000/svg" fill="none" viewBox="0 0 256 256"><path fill="#000" fill-rule="evenodd" d="m140.518 25.468 76.549 30.849a18.1 18.1 0 0 1 6.958 6.577 17.6 17.6 0 0 1 2.556 9.128v32.401c0 54.951-33.739 104.569-85.664 125.982a34.5 34.5 0 0 1-26.253 0C62.739 208.992 29 159.374 29 104.423V72.022c0-3.212.882-6.365 2.556-9.129a18.1 18.1 0 0 1 6.957-6.576l76.55-30.85a34.06 34.06 0 0 1 25.455 0M188 105.917 118.124 176 76 133.751l13.876-13.917 28.248 28.332 56-56.166z" clip-rule="evenodd"/></svg>
